cssgg/if-design.svg

<svg
  width="24"
  height="24"
  viewBox="0 0 24 24"
  fill="none"
  xmlns="http://www.w3.org/2000/svg"
>
  <path d="M10 5H14V19H10V5Z" fill="currentColor" />
  <path d="M5 19V10H9V19H5Z" fill="currentColor" />
  <path
    d="M7 5C5.89543 5 5 5.89543 5 7C5 8.10457 5.89543 9 7 9C8.10457 9 9 8.10457 9 7C9 5.89543 8.10457 5 7 5Z"
    fill="currentColor"
  />
  <path d="M15 5H19V9H15V5Z" fill="currentColor" />
  <path d="M19 10H15V14H19V10Z" fill="currentColor" />
</svg>

<svg viewBox="0 0 24 24" xmlns="http://www.w3.org/2000/svg"><g><path d="M10 5h4v14h-4V5Z"/><path d="M5 19v-9h4v9H5Z"/><path d="M7 5c-1.11 0-2 .89-2 2 0 1.1.89 2 2 2 1.1 0 2-.9 2-2 0-1.11-.9-2-2-2Z"/><path d="M15 5h4v4h-4V5Z"/><path d="M19 10h-4v4h4v-4Z"/></g></svg>
